X:1
T: QUICK STEP
M: 6/8
B: James Campbell's Collection 1798
Z: source from Highland Music Trust, chords by Gary Whaley
L: 1/8
K:Bb
(f/e/) [|:"Bb"d2 d def|"Eb" g2 a b4|"Bb"f2 f fdB|"F"cAF F2 f/e/|
|"Bb"d2 d def|"Eb" g2 a b4|"Bb"fbd "F"T(c2 B/c/)|"Bb" BBB B2 :|]
(c/d)[|:"F"cAF T(F2E/F/)|"Bb"dBF T(F2E/F/)|dcd fed|"F"cdB AGF |
|"F"cAF T(F2E/F/)|"Bb"def "F7-9"gab |"Bb"fbd "F7"cBc |"Bb" BBB B2 :|]
